X:1
T:I Would Not Be Denied
T:Charles Price Jones, ca. 1900
T:I Would Not Be Denied
T:Public Domain
T:Public Domain
C:Charles Price Jones, ca. 1900
Z:Public Domain
%%score ( 1 2 ) ( 3 4 )
L:1/8
M:4/4
K:C
V:1 treble 
V:2 treble 
V:3 bass 
V:4 bass 
V:1
 (CE) | [EG]2 [EG]2 [EG]2 [FA]2 | [EG]2 [CE]2 [CE]2 C2 | [B,D]2 [B,D]2 C2 [B,D]2 | [CE]6 (CE) | %5
w: 1.~When *|of death seized on|my soul, Un- to|Lord I cried; Till|sus came *|
w: 2.~As *|cob in the days|of old, I wres-|with the Lord; And|stant, with *|
w: 3.~Old *|tan said my Lord|was gone And would|hear my prayer; But|the Lord, *|
 [EG]2 [EG]2 [EG]2 [FA]2 | [EG]2 [CE]2 [CE]2 C2 | [B,D]2 [B,D]2 [B,E]2 [B,D]2 | C6 || %9
w: made me whole, I|would not be de-|I would not be|de-|
w: cour- age bold, I|stood up- on His|||
w: work is done, And|Christ the Lord is|||
"^Refrain" G2 | [Ec]2 [Ec]2 [Ec]2 [Ge]2 | [Ec]4- [Ec]2 [EG]2 | [FA]2 [FA]2 [Fc]2 [FA]2 | %13
w: I|not be de- nied,|Till * Je-|sus came and made|
w: ||||
w: ||||
 [EG]4- [EG]2 [EG]2 | [Ec]2 [Ec]2 [Ec]2 [FA]2 | [EG]2 [CE]2 [CE]2 C2 | %16
w: me * whole,|I would not be|de- nied. * *|
w: |||
w: |||
 [B,D]2 [B,D]2 [B,E]2 [B,D]2 | C2 A,2 [G,C]2 |] %18
w: ||
w: ||
w: ||
V:2
 C2 | x8 | x6 C2 | x4 C2 x2 | x6 C2 | x8 | x6 C2 | x8 | C6 || G2 | x8 | x8 | x8 | x8 | x8 | x6 C2 | %16
w: pangs||the|Je-|and||nied.||nied,|would|||||||
w: Ja-||tled|in-|a||Word.||||||||||
w: Sa-||not|praise|the||here.||||||||||
 x8 | C4- x2 |] %18
w: ||
w: ||
w: ||
V:3
 (E,G,) | [C,C]2 [C,C]2 [C,C]2 [C,C]2 | [C,C]2 [C,G,]2 [C,G,]2 [C,E,]2 | %3
w: ~ *|~ ~ ~ ~|~ ~ ~ ~|
 [G,,F,]2 [G,,F,]2 [G,,F,]2 [G,,G,]2 | [C,G,]6 (E,G,) | [C,C]2 [C,C]2 [C,C]2 [C,C]2 | %6
w: ~ ~ ~ ~|~ ~ *|~ ~ ~ ~|
 [C,C]2 [C,G,]2 [C,G,]2 [C,E,]2 | [G,,F,]2 [G,,F,]2 [G,,G,]2 [G,,F,]2 | [C,E,]6 || G,2 | %10
w: ~ ~ ~ ~|~ ~ ~ ~|~|~|
 [C,G,]2 [C,G,]2 [C,G,]2 [C,C]2 | [C,G,]2 [C,G,]2 [C,G,]2 [C,C]2 | [F,C]2 [F,C]2 [F,A,]2 [F,C]2 | %13
w: ~ ~ de- nied,|~ ~ ~ ~|~ ~ de- nied,|
 [C,C]2 [C,C]2 [C,C]2 [C,C]2 | [C,G,]2 [C,G,]2 [C,G,]2 [C,C]2 | [C,C]2 [C,G,]2 [C,G,]2 [C,E,]2 | %16
w: ~ ~ ~ ~|~ ~ ~ ~|~ ~ ~ ~|
 [G,,F,]2 [G,,F,]2 [G,,G,]2 [G,,F,]2 | E,2 F,2 [C,E,]2 |] %18
w: ~ ~ denied. *||
V:4
 C,2 | x8 | x8 | x8 | x6 C,2 | x8 | x8 | x8 | x6 || G,2 | x8 | x8 | x8 | x8 | x8 | x8 | x8 | %17
w: ~||||~|||||~||||||||
 C,4- x2 |] %18
w: |

